logos/amplitude.svg

<?xml version="1.0" encoding="UTF-8"?>
<svg width="512px" height="107px" viewBox="0 0 512 107" version="1.1" xmlns="http://www.w3.org/2000/svg" xmlns:xlink="http://www.w3.org/1999/xlink" preserveAspectRatio="xMidYMid">
		<title>Amplitude</title>
    <g>
        <path d="M53.3464268,0 C82.804795,0 106.692854,23.8880586 106.692854,53.3464268 C106.692854,82.804795 82.804795,106.692854 53.3464268,106.692854 C23.8880586,106.692854 0,82.8262192 0,53.3464268 C0,23.8666343 23.8880586,0 53.3464268,0 Z M276.308782,38.1351572 C286.849521,38.1137724 295.290683,46.8120251 295.290683,58.0597657 C295.290683,69.1575364 286.828097,77.9200619 276.308782,77.9200619 C272.002504,77.9200619 268.403227,76.806 265.446678,74.8992402 L265.446678,95.5522343 L254.348907,95.5522343 L254.348907,38.9278946 L265.446678,38.9278946 L265.446678,41.1560184 C268.403227,39.2492586 271.981079,38.1351572 276.308782,38.1351572 Z M46.2978427,16.3038678 C39.7205925,16.3252921 33.764646,26.9088803 28.644246,47.7332686 C25.3856149,47.6947049 22.369935,47.6387876 19.5347331,47.5967532 L18.5962644,47.5832987 L18.1249305,47.5832987 C17.7392937,47.5618745 17.3536569,47.5832987 16.9680201,47.6261473 C15.2112301,47.9475113 13.9471983,49.4900586 13.9471983,51.2682728 C13.9471983,53.0242976 15.2022396,54.5412669 16.9055099,54.8971097 L17.0965657,54.9318226 L17.1394142,54.9746711 L26.9731531,54.9746711 C26.1670651,58.6114406 25.4593947,62.2318071 24.8501421,65.7353025 L24.5950594,67.2293523 L24.2951197,68.964718 L24.2951197,69.0504151 C24.2951197,69.8859615 24.723605,70.6572351 25.4306059,71.1071448 C26.5187801,71.8052188 27.9611243,71.5194875 28.7205436,70.4950824 L28.8156402,70.3572954 L28.879913,70.4215682 L33.7003732,54.9746711 L56.9242795,54.9746711 C58.7024937,61.7018912 60.5449808,68.6219297 62.9873473,75.1349071 C64.2712999,78.5657969 67.2302623,86.4840585 72.1689796,86.801469 L72.4354494,86.8111331 L72.4997222,86.8111331 C78.6420099,86.8111331 81.8715242,79.0740785 83.9611195,71.6639248 L84.1452474,71.0014173 C84.6585764,69.1280042 85.1019249,67.2911339 85.5042527,65.6225322 C85.9166699,63.9532247 86.2570777,62.4999452 86.5914847,61.3782087 L86.6825874,61.0805874 L86.8325573,60.6092536 L86.8680613,60.4842945 C86.999857,59.8986344 86.6625915,59.2880904 86.0827079,59.0881305 C85.5028244,58.8881707 84.8482892,59.1547838 84.5894079,59.7137826 L84.5401607,59.8379799 L84.3687665,60.3093138 C83.7876333,61.9402362 83.2393059,63.4727408 82.7381371,64.8781226 L82.5262795,65.4725623 L82.483431,65.6011079 C79.1108366,75.1076084 77.5632509,79.5331187 74.5963998,79.673404 L74.4493305,79.6768519 L74.2565121,79.6768519 C70.3358711,79.6768519 66.6723213,63.7800452 65.2797439,57.8026745 C65.0833548,56.9457038 64.9018437,56.1333669 64.7228122,55.4028589 L64.6155916,54.9746711 L89.8962276,54.9746711 C90.2711523,54.9746711 90.646077,54.9002813 90.9962051,54.7515017 L91.2031079,54.6533071 L91.2308801,54.6318828 L91.2681742,54.6104586 L91.2681742,54.6104586 L91.3102293,54.5890343 L91.4387749,54.5033372 L91.5030477,54.4604887 C91.5458962,54.431923 91.5887448,54.4033573 91.6315933,54.3684437 L91.6958661,54.3105188 L91.8616176,54.1679255 C92.2883397,53.7698867 92.5909244,53.2345445 92.724231,52.6822745 C93.0336926,51.2174894 92.1114205,49.7725709 90.6843877,49.399717 L90.5175314,49.361513 L90.3889858,49.361513 C90.2890059,49.3472301 90.1985478,49.3329473 90.1049159,49.3250124 L89.9605004,49.3186644 L89.5748636,49.2758159 C81.3281685,48.6825285 72.8624135,48.417831 64.8179276,48.2458128 L62.8159531,48.2046025 L62.7945289,48.1403297 C62.4603103,46.8805828 62.1192359,45.618642 61.7709219,44.3629207 L61.508323,43.4224274 C61.4643282,43.2659167 61.4202189,43.1095361 61.3759941,42.9533019 L61.1092554,42.017786 L60.8516192,41.1274055 C57.0108468,27.9526804 52.3135652,16.3038678 46.2978427,16.3038678 Z M492.929553,37.7067113 C503.85593,37.7067113 511.997151,45.440872 511.997151,57.2456435 C511.997151,58.4668268 511.932879,59.6665858 511.74006,60.8663448 L483.588572,60.8663448 C484.466967,65.3440167 487.423516,68.8361724 493.486584,68.8361724 C496.593103,68.8361724 498.756954,67.8720803 499.956713,65.9653205 L511.525818,65.9653205 C509.447664,73.3138444 502.270534,78.327123 493.250917,78.327123 C480.953387,78.327123 472.662196,69.4789004 472.662196,58.0597657 C472.662196,46.2549941 480.889115,37.7067113 492.929553,37.7067113 Z M360.570427,25.2592117 L360.570427,38.9064703 L374.367655,38.9064703 L374.367655,48.247451 L360.570427,48.247451 L360.570427,61.8090126 C360.570427,66.1152904 363.205612,68.1077473 367.276223,68.1077473 C369.354377,68.1077473 371.5825,67.6364134 373.746351,67.0793824 L375.160353,76.5703331 C370.532711,78.005759 368.454557,78.327123 364.876705,78.327123 C355.621421,78.327123 349.558353,71.7927213 349.558353,61.8947096 L349.558353,48.247451 L341.502828,48.247451 L341.502828,38.9064703 L349.558353,38.9064703 L349.558353,25.2592117 L360.570427,25.2592117 Z M391.999828,38.9064703 L391.999828,58.9381607 C391.999828,65.0012285 395.042074,68.2791414 400.226746,68.2791414 C403.011901,68.2791414 406.054147,66.6080485 408.603635,63.5015297 L408.603635,38.9278946 L419.701406,38.9278946 L419.679982,77.127364 L408.582211,77.127364 L408.582211,74.406482 C405.475692,76.8702728 401.962112,78.3056987 397.655834,78.3056987 C387.607853,78.3056987 380.902057,71.042872 380.902057,59.9665255 L380.902057,38.9064703 L391.999828,38.9064703 Z M466.749098,20.4816 L466.749098,77.127364 L455.651327,77.127364 L455.651327,74.8992402 C452.694778,76.806 449.116926,77.9200619 444.810648,77.9200619 C434.269908,77.9200619 425.743049,69.2218092 425.743049,57.9740686 C425.743049,46.8762979 434.269908,38.1137724 444.810648,38.1137724 C449.116926,38.1137724 452.716203,39.2278343 455.651327,41.1345941 L455.651327,20.4816 L466.749098,20.4816 Z M334.861305,38.9278946 L334.861305,77.1487883 L323.763535,77.1487883 L323.763535,38.9278946 L334.861305,38.9278946 Z M154.019061,22.5811782 L177.30724,77.1487883 L165.095408,77.1487883 L160.874827,66.6937456 L136.301192,66.6937456 L132.080611,77.1487883 L119.804505,77.1487883 L143.178382,22.5811782 L154.019061,22.5811782 Z M229.903818,37.7281356 C239.223374,37.7281356 246.550474,44.9909623 246.550474,56.1530059 L246.550474,77.127364 L235.452703,77.127364 L235.452703,57.0956736 C235.452703,51.0326059 232.496154,47.7546929 227.311481,47.7546929 C224.99766,47.7546929 222.448172,48.804482 220.134351,51.9752736 C220.32717,53.3464268 220.434291,54.7390042 220.455715,56.1315816 L220.455715,77.1059397 L209.379369,77.1059397 L209.379369,57.0742494 C209.379369,51.0111816 206.42282,47.7332686 201.173874,47.7332686 C199.010023,47.7332686 196.63193,49.0187247 194.382382,52.0395464 L194.382382,77.0845155 L183.284611,77.0845155 L183.284611,38.9278946 L194.382382,38.9278946 L194.382382,41.2417155 C196.7819,39.0135916 199.331387,37.7281356 203.809059,37.7281356 C208.672368,37.7281356 212.978646,39.6348954 216.020892,43.1484753 C220.091503,39.3992285 223.926447,37.7281356 229.903818,37.7281356 Z M312.622915,20.4816 L312.622915,77.127364 L301.525145,77.127364 L301.525145,20.4816 L312.622915,20.4816 Z M446.63171,47.5190259 C440.80431,47.5190259 436.733699,52.3823347 436.733699,57.9740686 C436.733699,63.6300753 440.80431,68.5790812 446.63171,68.5790812 C449.909623,68.6005054 453.187536,67.4864435 455.651327,64.1228335 L455.651327,51.9110008 C453.187536,48.6330879 449.909623,47.5190259 446.63171,47.5190259 Z M274.466295,47.4547531 C271.188382,47.4547531 267.931893,48.5688151 265.446678,51.9324251 L265.446678,64.1442577 C267.931893,67.4221707 271.188382,68.5362326 274.466295,68.5362326 C280.229423,68.5148084 284.364306,63.6514996 284.364306,58.0597657 C284.364306,52.403759 280.207998,47.4547531 274.466295,47.4547531 Z M148.513024,36.3569824 L140.543197,56.2172787 L156.654246,56.2172787 L148.513024,36.3569824 Z M492.993826,46.8977222 C487.659183,46.8977222 484.702634,50.004241 483.652845,54.3105188 L500.963654,54.3105188 C500.320926,49.5329071 497.450074,46.8977222 492.993826,46.8977222 Z M46.0193272,23.3953004 C46.3835397,23.3953004 46.726328,23.6095431 47.0262678,23.9951799 C47.7546929,25.1520904 49.040149,27.7444268 50.9469088,33.4861305 C52.2537891,37.4281958 53.6677908,42.3343531 55.1674895,48.0332084 C50.4184435,47.9617941 45.6396416,47.9052579 40.9550667,47.8512013 L38.1566209,47.8189657 L35.3286176,47.7975414 C38.5208335,35.3286176 42.3986259,25.8805155 45.2480536,23.6523916 C45.4837205,23.5024218 45.7408117,23.3953004 46.0193272,23.3953004 Z M329.290996,18.8962042 C332.954546,18.8962042 335.911095,21.681359 335.911095,25.4306059 C335.911095,29.0941556 332.954546,31.8150377 329.290996,31.8150377 C325.541749,31.8150377 322.5852,29.1155799 322.5852,25.4306059 C322.5852,21.681359 325.541749,18.8962042 329.290996,18.8962042 Z" fill="#10069F"></path>
    </g>
</svg>

<svg width="512" height="107" xmlns="http://www.w3.org/2000/svg" preserveAspectRatio="xMidYMid">
	<path d="M53.346 0c29.459 0 53.347 23.888 53.347 53.346 0 29.459-23.888 53.347-53.347 53.347C23.888 106.693 0 82.826 0 53.346S23.888 0 53.346 0ZM276.31 38.135c10.54-.021 18.982 8.677 18.982 19.925 0 11.098-8.463 19.86-18.982 19.86-4.306 0-7.906-1.114-10.862-3.02v20.652h-11.098V38.928h11.098v2.228c2.956-1.907 6.534-3.02 10.862-3.02ZM46.298 16.304c-6.577.021-12.533 10.605-17.654 31.43-3.258-.04-6.274-.095-9.11-.137l-.938-.014h-.471c-.386-.021-.771 0-1.157.043a3.698 3.698 0 0 0-3.02 3.642 3.727 3.727 0 0 0 2.958 3.63l.19.034.043.043h9.834a239.663 239.663 0 0 0-2.123 10.76l-.255 1.494-.3 1.736v.085c0 .836.429 1.607 1.136 2.057a2.457 2.457 0 0 0 3.29-.612l.095-.138.064.065 4.82-15.447h23.224c1.778 6.727 3.621 13.647 6.063 20.16 1.284 3.43 4.243 11.35 9.182 11.666l.266.01h.065c6.142 0 9.372-7.737 11.461-15.147l.184-.663c.514-1.873.957-3.71 1.36-5.378.412-1.67.752-3.123 1.086-4.245l.092-.297.15-.472.035-.125a1.209 1.209 0 0 0-.785-1.396c-.58-.2-1.235.067-1.494.626l-.049.124-.171.471c-.581 1.631-1.13 3.164-1.63 4.57l-.213.594-.043.128c-3.372 9.507-4.92 13.932-7.887 14.072l-.147.004h-.192c-3.921 0-7.585-15.897-8.977-21.874-.197-.857-.378-1.67-.557-2.4l-.107-.428h25.28c.375 0 .75-.075 1.1-.223l.207-.099.028-.021.037-.022.042-.021.129-.086.064-.043c.043-.028.086-.057.129-.092l.064-.057.166-.143c.426-.398.729-.933.862-1.486.31-1.465-.613-2.91-2.04-3.282l-.166-.038h-.129c-.1-.015-.19-.03-.284-.037l-.144-.006-.386-.043c-8.247-.593-16.713-.858-24.757-1.03l-2.002-.041-.021-.065c-.335-1.26-.676-2.521-1.024-3.777l-.263-.94a267.17 267.17 0 0 0-.132-.47l-.267-.935-.257-.89c-3.841-13.175-8.538-24.824-14.554-24.824ZM492.93 37.707c10.926 0 19.067 7.734 19.067 19.539 0 1.22-.064 2.42-.257 3.62H483.59c.878 4.478 3.835 7.97 9.898 7.97 3.106 0 5.27-.964 6.47-2.87h11.569c-2.078 7.348-9.255 12.361-18.275 12.361-12.298 0-20.589-8.848-20.589-20.267 0-11.805 8.227-20.353 20.268-20.353ZM360.57 25.259v13.647h13.798v9.341H360.57V61.81c0 4.306 2.636 6.299 6.706 6.299 2.078 0 4.306-.472 6.47-1.029l1.414 9.491c-4.627 1.436-6.705 1.757-10.283 1.757-9.256 0-15.319-6.534-15.319-16.432V48.247h-8.055v-9.34h8.055V25.258h11.012ZM392 38.906v20.032c0 6.063 3.042 9.341 8.227 9.341 2.785 0 5.827-1.671 8.377-4.777V38.928H419.7l-.021 38.2h-11.098v-2.722c-3.106 2.464-6.62 3.9-10.926 3.9-10.048 0-16.754-7.263-16.754-18.34v-21.06H392Zm74.75-18.424v56.645H455.65V74.9c-2.956 1.907-6.534 3.021-10.84 3.021-10.541 0-19.068-8.698-19.068-19.946 0-11.098 8.527-19.86 19.068-19.86 4.306 0 7.905 1.114 10.84 3.02V20.483h11.098ZM334.86 38.928v38.22h-11.097v-38.22h11.097ZM154.02 22.58l23.288 54.568h-12.212l-4.22-10.455H136.3l-4.22 10.455h-12.276l23.373-54.568h10.841Zm75.885 15.147c9.32 0 16.646 7.263 16.646 18.425v20.974h-11.097V57.096c0-6.063-2.957-9.341-8.142-9.341-2.313 0-4.863 1.05-7.177 4.22.193 1.371.3 2.764.322 4.157v20.974h-11.077V57.074c0-6.063-2.956-9.34-8.205-9.34-2.164 0-4.542 1.285-6.792 4.306v25.045h-11.097V38.928h11.097v2.314c2.4-2.228 4.95-3.514 9.427-3.514 4.863 0 9.17 1.907 12.212 5.42 4.07-3.749 7.905-5.42 13.883-5.42Zm82.719-17.246v56.645h-11.098V20.482h11.098Zm134.009 27.037c-5.828 0-9.898 4.863-9.898 10.455 0 5.656 4.07 10.605 9.898 10.605 3.278.022 6.556-1.093 9.02-4.456V51.91c-2.464-3.278-5.742-4.392-9.02-4.392Zm-172.166-.064c-3.278 0-6.534 1.114-9.02 4.477v12.212c2.486 3.278 5.742 4.392 9.02 4.392 5.763-.021 9.898-4.885 9.898-10.476 0-5.656-4.156-10.605-9.898-10.605ZM148.513 36.357l-7.97 19.86h16.111l-8.141-19.86Zm344.48 10.54c-5.334 0-8.29 3.107-9.34 7.414h17.31c-.642-4.778-3.513-7.413-7.97-7.413ZM46.02 23.396c.365 0 .707.215 1.007.6.729 1.157 2.014 3.75 3.92 9.491 1.308 3.942 2.722 8.848 4.221 14.547-4.749-.071-9.527-.128-14.212-.182l-2.798-.032-2.828-.021c3.192-12.47 7.07-21.917 9.92-24.146.235-.15.492-.257.77-.257Zm283.272-4.499c3.664 0 6.62 2.785 6.62 6.535 0 3.663-2.956 6.384-6.62 6.384-3.75 0-6.706-2.7-6.706-6.384 0-3.75 2.957-6.535 6.706-6.535Z" fill="#10069F"/>
</svg>
